build/images/border-button.svg

<svg width="40" height="40" viewBox="0 0 40 40" fill="none" xmlns="http://www.w3.org/2000/svg">
<g clip-path="url(#clip0_2018_2196)">
<path fill-rule="evenodd" clip-rule="evenodd" d="M32 8.70718V8H31.293L39.6465 -0.353516L40.3536 0.353591L32 8.70718ZM31.2929 32H32V31.2929L40.3536 39.6465L39.6465 40.3536L31.2929 32ZM8 8.70711L-0.353516 0.353591L0.353592 -0.353516L8.70711 8H8V8.70711ZM8 31.293V32H8.70718L0.353592 40.3536L-0.353516 39.6465L8 31.293Z" fill="white"/>
</g>
<defs>
<clipPath id="clip0_2018_2196">
<rect width="40" height="40" fill="white"/>
</clipPath>
</defs>
</svg>

<svg width="40" height="40" fill="none" xmlns="http://www.w3.org/2000/svg"><g clip-path="url(#clip0_2018_2196)"><path fill-rule="evenodd" clip-rule="evenodd" d="M32 8.707V8h-.707l8.354-8.354.707.708L32 8.707zM31.293 32H32v-.707l8.354 8.354-.707.707L31.293 32zM8 8.707L-.354.354l.708-.708L8.707 8H8v.707zm0 22.586V32h.707L.354 40.354l-.708-.707L8 31.293z" fill="#fff"/></g><defs><clipPath id="clip0_2018_2196"><path fill="#fff" d="M0 0h40v40H0z"/></clipPath></defs></svg>
